X: 191
T: Amerikatur nr 2
C: Sven Nyhus
O: Röros, Norge
Z:Transcribed to abcby Jon Magnusson 080502
D: Småviltlaget - På Skuddhold
R: Rörospols
N: [[!Norge]]
M: 3/4
L: 1/8
K: D
(3:2:4 f2edc2 d>f|g2 B4|(3:2:4 A2Bcd2 e>c|(3:2:4 d2cde2 f2|
(3:2:4 f2edc2 d>f|g2 B4|(3:2:4 A2Bcd2 e>c|d2 d4:|
|:(3 D2F2D2 F>A|(3 G2G2F2 G>B|(3:2:4 A2Bcd2 e>c|(3:2:4 d2cde2 f2|
(3 D2F2D2 F>A|(3 G2G2F2 G>B|(3:2:4 A2Bcd2 e>c|d2 d4:|
(:musicend:)

Denna låt har väldigt [[!lite information]].
(:music:)
